X: 1
T: The Waddling Gander
M: 6/8
R: Jig
K: GMaj
|: BGG dGG | BGG ded | cAA eAA | cAA edc 
|  BGG dGG | BGG ded | c2d e2f | gdB A2G :|
|: g2d B2d | gfe dBG | Aee ede | gee e2f 
|  g2d B2d | gfe dBG | c2d e2f | gdB A2G :|
|: Bdd dBG | Bdd dBG | gee ede | gee edc
|  Bdd dBG | Bdd dBd | c2d e2f | gdB A2G :|  
